src/assets/innovation-light.svg

<svg width="64" height="64" viewBox="0 0 64 64" fill="none" xmlns="http://www.w3.org/2000/svg">
<path d="M12.621 14.584L11.033 13.367C10.3964 14.1977 9.83133 15.0808 9.34399 16.007L11.113 16.938C11.5487 16.1124 12.0531 15.3249 12.621 14.584Z" fill="white"/>
<path d="M13.138 11.049L14.5 12.512C15.184 11.8753 15.9199 11.2966 16.7 10.782L15.6 9.112C14.727 9.68825 13.9035 10.3362 13.138 11.049Z" fill="white"/>
<path d="M16.441 40.517L14.641 41.39C15.061 42.26 15.441 43.147 15.761 44.028L17.64 43.343C17.2886 42.3812 16.8884 41.438 16.441 40.517Z" fill="white"/>
<path d="M9.233 25.024L7.233 25.077C7.2611 26.1233 7.37751 27.1653 7.581 28.192L9.542 27.802C9.36049 26.8864 9.25712 25.9571 9.233 25.024Z" fill="white"/>
<path d="M8.45401 31.205C8.83102 32.1812 9.29034 33.1236 9.82701 34.022L11.544 33C11.065 32.1986 10.6552 31.3579 10.319 30.487L8.45401 31.205Z" fill="white"/>
<path d="M7.41501 21.949L9.39601 22.234C9.52801 21.3106 9.73912 20.4002 10.027 19.513L8.12701 18.896C7.80343 19.8916 7.56524 20.913 7.41501 21.949Z" fill="white"/>
<path d="M19.156 9.43802C20.0107 9.06074 20.8951 8.75437 21.8 8.52202L21.3 6.58502C20.2886 6.84428 19.3006 7.18712 18.346 7.61002L19.156 9.43802Z" fill="white"/>
<path d="M13.19 35.29L11.638 36.55C12.2301 37.2889 12.7746 38.0648 13.268 38.873L14.968 37.824C14.431 36.9416 13.837 36.0952 13.19 35.29Z" fill="white"/>
<path d="M33 56H19V58H33V56Z" fill="white"/>
<path d="M31 60H21V62H31V60Z" fill="white"/>
<path d="M57 15.08V12.92C56.9966 12.38 56.7794 11.8633 56.3959 11.4831C56.0125 11.1028 55.494 10.8899 54.954 10.891C54.7577 10.288 54.5215 9.69867 54.247 9.127C54.435 8.93994 54.5842 8.71758 54.686 8.47269C54.7878 8.2278 54.8402 7.96521 54.8402 7.7C54.8402 7.43479 54.7878 7.1722 54.686 6.92731C54.5842 6.68242 54.435 6.46005 54.247 6.273L52.728 4.754C52.3418 4.37585 51.8235 4.16282 51.283 4.16C50.7399 4.16486 50.2199 4.3799 49.832 4.76C49.2728 4.4729 48.694 4.22562 48.1 4.02C48.0992 3.48451 47.8861 2.97117 47.5075 2.59252C47.1288 2.21387 46.6155 2.00079 46.08 2H43.92C43.6533 2.00008 43.3894 2.05333 43.1435 2.15663C42.8977 2.25993 42.6749 2.41121 42.4882 2.60162C42.3015 2.79203 42.1547 3.01775 42.0563 3.26559C41.9578 3.51342 41.9098 3.77839 41.915 4.045C41.3031 4.23877 40.7057 4.47536 40.127 4.753C39.7431 4.38495 39.2318 4.17946 38.7 4.17946C38.1682 4.17946 37.6569 4.38495 37.273 4.753L35.754 6.272C35.5633 6.46085 35.4125 6.68605 35.3105 6.93426C35.2084 7.18248 35.1573 7.44865 35.16 7.717C35.1633 7.96836 35.212 8.21705 35.304 8.451C33.0996 7.19215 30.6609 6.39785 28.138 6.117C27.428 6.03907 26.7143 6.00001 26 6C25.4667 6 24.9393 6.02167 24.418 6.065L24.584 8.058C25.0507 8.01933 25.5227 8 26 8C26.6411 8.00002 27.2817 8.03507 27.919 8.105C31.6846 8.51928 35.1973 10.2021 37.88 12.8769C40.5627 15.5518 42.2557 19.0596 42.681 22.824C42.9229 25.042 42.709 27.2859 42.0524 29.4182C41.3959 31.5506 40.3105 33.5262 38.863 35.224C35.9167 38.9301 33.9673 43.3281 33.2 48H30V31H31V32C31 32.2652 31.1054 32.5196 31.2929 32.7071C31.4804 32.8946 31.7348 33 32 33H36C36.2652 33 36.5196 32.8946 36.7071 32.7071C36.8946 32.5196 37 32.2652 37 32V28C37 27.7348 36.8946 27.4804 36.7071 27.2929C36.5196 27.1054 36.2652 27 36 27H32C31.7348 27 31.4804 27.1054 31.2929 27.2929C31.1054 27.4804 31 27.7348 31 28V29H29C28.7348 29 28.4804 29.1054 28.2929 29.2929C28.1054 29.4804 28 29.7348 28 30V48H27V24C27 23.7348 26.8946 23.4804 26.7071 23.2929C26.5196 23.1054 26.2652 23 26 23H24V22C24 21.7348 23.8946 21.4804 23.7071 21.2929C23.5196 21.1054 23.2652 21 23 21H19C18.7348 21 18.4804 21.1054 18.2929 21.2929C18.1054 21.4804 18 21.7348 18 22V26C18 26.2652 18.1054 26.5196 18.2929 26.7071C18.4804 26.8946 18.7348 27 19 27H23C23.2652 27 23.5196 26.8946 23.7071 26.7071C23.8946 26.5196 24 26.2652 24 26V25H25V48H24V33C24 32.7348 23.8946 32.4804 23.7071 32.2929C23.5196 32.1054 23.2652 32 23 32H21V31C21 30.7348 20.8946 30.4804 20.7071 30.2929C20.5196 30.1054 20.2652 30 20 30H16C15.7348 30 15.4804 30.1054 15.2929 30.2929C15.1054 30.4804 15 30.7348 15 31V35C15 35.2652 15.1054 35.5196 15.2929 35.7071C15.4804 35.8946 15.7348 36 16 36H20C20.2652 36 20.5196 35.8946 20.7071 35.7071C20.8946 35.5196 21 35.2652 21 35V34H22V48H18.848C18.841 47.95 18.839 47.9 18.831 47.854L17.842 48L18.831 47.852C18.755 47.344 18.655 46.825 18.531 46.3L16.584 46.755C16.6927 47.2257 16.782 47.69 16.852 48.148C16.946 48.7609 16.9955 49.3799 17 50V53C17 53.2652 17.1054 53.5196 17.2929 53.7071C17.4804 53.8946 17.7348 54 18 54H34C34.2652 54 34.5196 53.8946 34.7071 53.7071C34.8946 53.5196 35 53.2652 35 53V50.043C35.4364 45.1042 37.3102 40.4015 40.39 36.516C42.9063 33.5569 44.4158 29.8739 44.7 26H46.08C46.62 25.9966 47.1367 25.7794 47.5169 25.3959C47.8972 25.0125 48.1101 24.494 48.109 23.954C48.712 23.7577 49.3013 23.5215 49.873 23.247C50.2571 23.6146 50.7683 23.8198 51.3 23.8198C51.8317 23.8198 52.3429 23.6146 52.727 23.247L54.246 21.728C54.4367 21.5392 54.5875 21.3139 54.6895 21.0657C54.7916 20.8175 54.8427 20.5514 54.84 20.283C54.8351 19.7399 54.6201 19.2199 54.24 18.832C54.5261 18.2723 54.7733 17.6936 54.98 17.1C55.5155 17.0992 56.0288 16.8861 56.4075 16.5075C56.7861 16.1288 56.9992 15.6155 57 15.08ZM33 29H35V31H33V29ZM22 25H20V23H22V25ZM19 34H17V32H19V34ZM33 52H19V50H33V52ZM40.249 12.5C40.5277 11.6206 41.0446 10.8356 41.7424 10.2322C42.4401 9.62871 43.2915 9.23042 44.2019 9.08149C45.1123 8.93256 46.0461 9.03881 46.8998 9.38846C47.7535 9.73811 48.4936 10.3175 49.038 11.0622C49.5824 11.807 49.9097 12.6881 49.9837 13.6076C50.0577 14.5271 49.8754 15.4492 49.4572 16.2714C49.0389 17.0937 48.401 17.7839 47.6142 18.2656C46.8274 18.7472 45.9225 19.0014 45 19C44.6106 18.9955 44.2231 18.9442 43.846 18.847C43.0795 16.5138 41.8568 14.3563 40.249 12.5ZM53.049 16.5C52.899 16.983 52.7059 17.4515 52.472 17.9C52.3163 18.19 52.2345 18.5139 52.234 18.843C52.2403 19.392 52.4548 19.9181 52.834 20.315L51.288 21.836C50.9835 21.5275 50.5879 21.3249 50.1596 21.2583C49.7312 21.1917 49.2928 21.2645 48.909 21.466C48.464 21.6985 48 21.8925 47.522 22.046C47.1072 22.1795 46.7448 22.4399 46.486 22.7906C46.2273 23.1412 46.0853 23.5643 46.08 24H44.744C44.73 23.54 44.717 23.08 44.669 22.617C44.61 22.054 44.523 21.499 44.413 20.952C44.613 20.968 44.801 21 45 21C46.2516 21.0053 47.4817 20.6749 48.5622 20.0433C49.6428 19.4116 50.5342 18.5018 51.1436 17.4086C51.7531 16.3154 52.0583 15.0788 52.0274 13.8276C51.9966 12.5763 51.6308 11.3563 50.9683 10.2944C50.3057 9.23258 49.3706 8.3678 48.2602 7.79016C47.1499 7.21252 45.905 6.94314 44.6552 7.01008C43.4053 7.07703 42.1963 7.47784 41.1541 8.17079C40.1118 8.86373 39.2744 9.82345 38.729 10.95C38.359 10.6113 37.976 10.2873 37.58 9.978C37.7008 9.72194 37.7655 9.44307 37.77 9.16C37.7637 8.61104 37.5492 8.08495 37.17 7.688L38.716 6.167C39.0205 6.47554 39.4161 6.67805 39.8444 6.74467C40.2728 6.81129 40.7112 6.73849 41.095 6.537C41.5479 6.30099 42.0212 6.10621 42.509 5.955C42.9192 5.81773 43.2759 5.55525 43.5291 5.20453C43.7822 4.85381 43.9189 4.43252 43.92 4L46.1 4.02C46.0993 4.45029 46.2356 4.86963 46.4891 5.21732C46.7426 5.56502 47.1001 5.82302 47.51 5.954C47.9881 6.10631 48.4522 6.29969 48.897 6.532C49.2881 6.7272 49.73 6.79689 50.1622 6.73156C50.5945 6.66624 50.996 6.46907 51.312 6.167L52.833 7.713C52.5245 8.0175 52.3219 8.41309 52.2553 8.84143C52.1887 9.26977 52.2615 9.70818 52.463 10.092C52.6955 10.537 52.8895 11.001 53.043 11.479C53.1768 11.8941 53.4378 12.2566 53.789 12.5152C54.1402 12.7738 54.5639 12.9154 55 12.92L54.96 15.1C54.5336 15.1002 54.1183 15.2359 53.7741 15.4876C53.4299 15.7392 53.1745 16.0938 53.045 16.5H53.049Z" fill="white"/>
</svg>

<?xml version="1.0" encoding="UTF-8" standalone="no"?> <svg id="Layer_1" data-name="Layer 1" xmlns="http://www.w3.org/2000/svg" viewBox="0 0 64 64"><path d="M12.621,14.584l-1.588-1.217a18.505,18.505,0,0,0-1.689,2.64l1.769.931A16.623,16.623,0,0,1,12.621,14.584Z"/><path d="M13.138,11.049,14.5,12.512a16.833,16.833,0,0,1,2.2-1.73l-1.1-1.67A18.854,18.854,0,0,0,13.138,11.049Z"/><path d="M16.441,40.517l-1.8.873c.42.87.8,1.757,1.12,2.638l1.879-.685A30.139,30.139,0,0,0,16.441,40.517Z"/><path d="M9.233,25.024l-2,.053a18.589,18.589,0,0,0,.348,3.115l1.961-.39A16.475,16.475,0,0,1,9.233,25.024Z"/><path d="M8.454,31.205a18.465,18.465,0,0,0,1.373,2.817L11.544,33a16.434,16.434,0,0,1-1.225-2.513Z"/><path d="M7.415,21.949l1.981.285a16.281,16.281,0,0,1,.631-2.721l-1.9-.617A18.437,18.437,0,0,0,7.415,21.949Z"/><path d="M19.156,9.438A17.044,17.044,0,0,1,21.8,8.522l-.5-1.937A18.847,18.847,0,0,0,18.346,7.61Z"/><path d="M13.19,35.29l-1.552,1.26a22.284,22.284,0,0,1,1.63,2.323l1.7-1.049A23.8,23.8,0,0,0,13.19,35.29Z"/><rect x="19" y="56" width="14" height="2"/><rect x="21" y="60" width="10" height="2"/><path d="M57,15.08V12.92a2.042,2.042,0,0,0-2.046-2.029,14.3,14.3,0,0,0-.707-1.764,2.013,2.013,0,0,0,0-2.854L52.728,4.754a2.081,2.081,0,0,0-1.445-.594,2.1,2.1,0,0,0-1.451.6A13.362,13.362,0,0,0,48.1,4.02,2.023,2.023,0,0,0,46.08,2H43.92a2.006,2.006,0,0,0-2.005,2.045,13.683,13.683,0,0,0-1.788.708,2.062,2.062,0,0,0-2.854,0L35.754,6.272a2.005,2.005,0,0,0-.594,1.445,2.08,2.08,0,0,0,.144.734,18.6,18.6,0,0,0-7.166-2.334A19.6,19.6,0,0,0,26,6q-.8,0-1.582.065l.166,1.993Q25.284,8,26,8a17.6,17.6,0,0,1,1.919.105A16.693,16.693,0,0,1,42.681,22.824a16.376,16.376,0,0,1-3.818,12.4A27.76,27.76,0,0,0,33.2,48H30V31h1v1a1,1,0,0,0,1,1h4a1,1,0,0,0,1-1V28a1,1,0,0,0-1-1H32a1,1,0,0,0-1,1v1H29a1,1,0,0,0-1,1V48H27V24a1,1,0,0,0-1-1H24V22a1,1,0,0,0-1-1H19a1,1,0,0,0-1,1v4a1,1,0,0,0,1,1h4a1,1,0,0,0,1-1V25h1V48H24V33a1,1,0,0,0-1-1H21V31a1,1,0,0,0-1-1H16a1,1,0,0,0-1,1v4a1,1,0,0,0,1,1h4a1,1,0,0,0,1-1V34h1V48H18.848c-.007-.05-.009-.1-.017-.146L17.842,48l.989-.148c-.076-.508-.176-1.027-.3-1.552l-1.947.455q.163.706.268,1.393h0A12.83,12.83,0,0,1,17,50v3a1,1,0,0,0,1,1H34a1,1,0,0,0,1-1V50.043a25.372,25.372,0,0,1,5.39-13.527A18.3,18.3,0,0,0,44.7,26H46.08a2.042,2.042,0,0,0,2.029-2.046,14.3,14.3,0,0,0,1.764-.707,2.064,2.064,0,0,0,2.854,0l1.519-1.519a2.005,2.005,0,0,0,.594-1.445,2.1,2.1,0,0,0-.6-1.451A13.705,13.705,0,0,0,54.98,17.1,2.023,2.023,0,0,0,57,15.08ZM33,29h2v2H33ZM22,25H20V23h2Zm-3,9H17V32h2ZM33,52H19V50H33Zm7.249-39.5A4.992,4.992,0,1,1,45,19a4.848,4.848,0,0,1-1.154-.153A18.526,18.526,0,0,0,40.249,12.5Zm12.8,4a8.447,8.447,0,0,1-.577,1.4,2,2,0,0,0-.238.943,2.167,2.167,0,0,0,.6,1.472l-1.546,1.521a2.022,2.022,0,0,0-2.379-.37,8.818,8.818,0,0,1-1.387.58A2.079,2.079,0,0,0,46.08,24H44.744c-.014-.46-.027-.92-.075-1.383-.059-.563-.146-1.118-.256-1.665.2.016.388.048.587.048a7,7,0,1,0-6.271-10.05q-.555-.508-1.149-.972a1.991,1.991,0,0,0,.19-.818,2.167,2.167,0,0,0-.6-1.472l1.546-1.521a2.022,2.022,0,0,0,2.379.37,8.516,8.516,0,0,1,1.414-.582A2.067,2.067,0,0,0,43.92,4l2.18.02a2.027,2.027,0,0,0,1.41,1.934,8.7,8.7,0,0,1,1.387.578,2.123,2.123,0,0,0,2.415-.365l1.521,1.546a2.022,2.022,0,0,0-.37,2.379,8.818,8.818,0,0,1,.58,1.387A2.079,2.079,0,0,0,55,12.92l-.04,2.18A2.011,2.011,0,0,0,53.045,16.5Z"/></svg>
